X:41
T:Dol-Li-A
Z:Jack Campin, http://www.campin.me.uk/
S:Northumbrian Minstrelsy
M:C
L:1/8
Q:1/4=80
K:G Minor
 G G A B  c A G2|                     \
                 (B`c)  d2  (B`c) d2 |\
 G2  A B  c A G2|                     \
                 (B`c)  d2   G4     ||
 e2  d c  d B G2|                     \
                  B2    d z  B2   d z|\
 e2  d c  d B G2|                     \
                 (B`c) (d^F) G4     |]

